release/img/icons/Cart.svg

<svg width="20" height="17" viewBox="0 0 20 17" fill="none" xmlns="http://www.w3.org/2000/svg">
<path d="M18.3375 10.0047L19.9789 3.09848C20.0974 2.59984 19.7011 2.125 19.1663 2.125H5.52806L5.20979 0.637168C5.13049 0.266322 4.78924 0 4.39337 0H0.833334C0.37309 0 0 0.356768 0 0.796875V1.32812C0 1.76823 0.37309 2.125 0.833334 2.125H3.25983L5.69899 13.5281C5.11545 13.849 4.72222 14.4507 4.72222 15.1406C4.72222 16.1675 5.59278 17 6.66667 17C7.74056 17 8.61111 16.1675 8.61111 15.1406C8.61111 14.6202 8.38726 14.15 8.02695 13.8125H15.3064C14.9461 14.15 14.7222 14.6202 14.7222 15.1406C14.7222 16.1675 15.5928 17 16.6667 17C17.7406 17 18.6111 16.1675 18.6111 15.1406C18.6111 14.4044 18.1636 13.7683 17.5146 13.467L17.7062 12.661C17.8247 12.1623 17.4283 11.6875 16.8936 11.6875H7.57351L7.34625 10.625H17.5249C17.914 10.625 18.2513 10.3675 18.3375 10.0047Z" fill="white"/>
</svg>

<svg width="20" height="17" fill="none" xmlns="http://www.w3.org/2000/svg"><path d="M18.337 10.005l1.642-6.907c.118-.498-.278-.973-.813-.973H5.528L5.21.637A.825.825 0 004.393 0H.833C.373 0 0 .357 0 .797v.531c0 .44.373.797.833.797H3.26l2.439 11.403a1.846 1.846 0 00-.977 1.613c0 1.027.87 1.859 1.945 1.859 1.074 0 1.944-.832 1.944-1.86 0-.52-.224-.99-.584-1.328h7.28c-.36.338-.585.808-.585 1.329 0 1.027.87 1.859 1.945 1.859 1.074 0 1.944-.832 1.944-1.86 0-.736-.447-1.372-1.096-1.673l.191-.806c.119-.499-.278-.973-.812-.973h-9.32l-.228-1.063h10.179a.828.828 0 00.813-.62z" fill="#fff"/></svg>
